X: 1570
T: Jack Heagney's Set Tune
B: australian traditional tunes wiki
M:6/8
L:1/8
R: Jig
Q: 3/8=100
K:C
V:1 
e2d|:"C"c2c "G7"ABA|"C"G2G G2G|"F"A2A AGA|
"G7"f3e2d|"C"c2c "G7"ABA|"C"G2GG2G|"F"ABc "G7"dAB|1"C"c3e2d:|2"C"c3c2B||
|:"C"c2de2f|g2ag2e|c2de2f|"F"a3"G7"g2g|
"F"aaa "C"ggg|"G7"fgf "C"e2d|"G7"GAB dcB|1"C"c3c2B:|2"C"c3z3||
% abcbook-tune_id 6342d53abd8ddbe168dde32c


% abcbook-boost 0
% abcbook-tablature 
% abcbook-transpose 
% abcbook-lastupdated 1665324371595
% abcbook-soundfonts 
% abcbook-repeats 1
% NFF Book 2014

